X:1
T:Zaragoza, 87.87.77.77
T:Zaragoza, 87.87.77.77
T:Robert Lowry, 1884
T:Public Domain Courtesy of the Cyber Hymnal™
C:Robert Lowry, 1884
Z:Public Domain
Z:Courtesy of the Cyber Hymnal™
%%score ( 1 2 ) ( 3 4 )
L:1/8
Q:1/4=97
M:3/4
K:F
V:1 treble 
V:2 treble 
V:3 bass 
V:4 bass 
V:1
 [FA]>[GB] | [Ac]3 [FA] [GB]>[EG] | [CF]2 C2 (3([CF]G)[FA] | [EG]3 [EG] [FA]>[GB] | %4
 [FA]4 [FA]>[GB] | [Ac]3 [FA] [GB]>[EG] | [CF]2 C2 (3(FG)[FA] | [EG]>[EG] [Ec]2 [CE]2 | %8
 [CF]4 [CA]2 | [DA]3 D [DF]>[DF] | [^CE]2 D2 [A,F]>[A,F] | [CG]3 [CE] [DF]>[=B,D] | C4 [CA]2 | %13
 [Fc]3 [FA] [GB]>[EG] | F2 !fermata![FB]2 [GB]>[GB] | [FA]>[EG] [Ec]2 [CE]2 | [CF]4 |] %17
V:2
 x2 | x6 | x2 C2 x2 | x6 | x6 | x6 | x2 C2 C2 | x6 | x6 | x3 D x2 | x2 D2 x2 | x6 | C4 x2 | x6 | %14
 F2 x4 | x6 | x4 |] %17
V:3
 [F,C]>[F,C] | [F,C]3 [F,C] [C,C]>[C,B,] | [F,A,]2 [F,A,]2 (3(B,B,)[F,C] | %3
 [C,C]3 [C,C] [C,C]>[C,C] | [F,C]4 [F,C]>[F,C] | [F,C]3 [F,C] [C,C]>[C,B,] | %6
 [F,A,]2 [F,A,]2 (3(A,B,)[F,C] | [C,C]>[C,C] [C,G,]2 [C,B,]2 | [F,A,]4 F,2 | %9
 [D,F,]3 [D,F,] [D,A,]>[D,A,] | [A,,G,]2 [D,F,]2 [D,F,]>[D,F,] | [C,E,]3 [C,G,] [G,,G,]>[G,,F,] | %12
 [C,E,]4 F,2 | [F,A,]3 [F,C] [C,C]>[C,B,] | [D,A,]2 !fermata![B,,D]2 [G,,D]>[G,,D] | %15
 [C,C]>[C,C] [C,G,]2 [C,B,]2 | [F,,F,A,]4 |] %17
V:4
 x2 | x6 | x4 F,2 | x6 | x6 | x6 | x4 F,2 | x6 | x4 F,2 | x6 | x6 | x6 | x4 F,2 | x6 | x6 | x6 | %16
 x4 |] %17

